app/dist/common/images/customers-bank.svg

<svg height="18" viewBox="0 0 18 18" width="18" xmlns="http://www.w3.org/2000/svg"><path d="m0 0h18v18h-18z" fill="#07192d"/><g fill="#009dff"><path d="m11.23 5.5h-4.46a2.27 2.27 0 0 0 -2.27 2.27 2.2 2.2 0 0 0 2.23 2.23h4.46c1.26 0 2.31-.98 2.31-2.23a2.27 2.27 0 0 0 -2.27-2.27zm-4.46-.5a2.77 2.77 0 0 0 -2.77 2.77 2.7 2.7 0 0 0 2.73 2.73h4.46c1.53 0 2.81-1.2 2.81-2.73a2.77 2.77 0 0 0 -2.77-2.77z" fill-rule="evenodd"/><path d="m11.23 8h-4.46c-1.25 0-2.27.98-2.27 2.23a2.27 2.27 0 0 0 2.27 2.27h4.46a2.27 2.27 0 0 0 2.27-2.27 2.24 2.24 0 0 0 -2.27-2.23zm-4.46-.5a2.74 2.74 0 0 0 -2.77 2.73 2.77 2.77 0 0 0 2.77 2.77h4.46a2.77 2.77 0 0 0 2.77-2.77 2.74 2.74 0 0 0 -2.77-2.73z" fill-rule="evenodd"/><path d="m8.75 5.5h.5v2.15h-.5zm0 5h.5v2.2h-.5z"/></g></svg>

<!-- by TradingView --><svg xmlns="http://www.w3.org/2000/svg" width="18" height="18" viewBox="0 0 18 18"><path fill="#07192D" d="M0 0h18v18H0z"/><path fill-rule="evenodd" d="M11.23 5.5H6.77A2.27 2.27 0 0 0 4.5 7.77 2.2 2.2 0 0 0 6.73 10h4.46c1.26 0 2.31-.98 2.31-2.23a2.27 2.27 0 0 0-2.27-2.27ZM6.77 5A2.77 2.77 0 0 0 4 7.77a2.7 2.7 0 0 0 2.73 2.73h4.46c1.53 0 2.81-1.2 2.81-2.73A2.77 2.77 0 0 0 11.23 5H6.77Z" fill="#009DFF"/><path fill-rule="evenodd" d="M11.23 8H6.77c-1.25 0-2.27.98-2.27 2.23a2.27 2.27 0 0 0 2.27 2.27h4.46a2.27 2.27 0 0 0 2.27-2.27A2.24 2.24 0 0 0 11.23 8Zm-4.46-.5A2.74 2.74 0 0 0 4 10.23 2.77 2.77 0 0 0 6.77 13h4.46A2.77 2.77 0 0 0 14 10.23a2.74 2.74 0 0 0-2.77-2.73H6.77Z" fill="#009DFF"/><path d="M8.75 5.5h.5v2.15h-.5V5.5ZM8.75 10.5h.5v2.2h-.5v-2.2Z" fill="#009DFF"/></svg>
